assets/images/AppLogo/AppLogo.svg

<svg viewBox="0 0 231.71 127.49" xmlns="http://www.w3.org/2000/svg"><g fill="#fff"><path d="m128.66 4.92a16.81 16.81 0 1 1 -23.78 0 16.81 16.81 0 0 1 23.78 0z"/><path d="m98.74 112.48-14.43 14.43a2 2 0 0 1 -2.81 0l-31.84-31.84-31.84 31.84a2 2 0 0 1 -2.81 0l-14.43-14.43a2 2 0 0 1 0-2.81l47.68-47.67a2 2 0 0 1 2.81 0l47.67 47.64a2 2 0 0 1 0 2.84z"/><path d="m231.13 112.48-14.43 14.43a2 2 0 0 1 -2.81 0l-31.84-31.84-31.84 31.84a2 2 0 0 1 -2.81 0l-14.4-14.43a2 2 0 0 1 0-2.81l47.65-47.67a2 2 0 0 1 2.81 0l47.67 47.64a2 2 0 0 1 0 2.84z"/><path d="m165.83 44.79-47.64 47.68a2 2 0 0 1 -2.8 0l-47.68-47.68a2 2 0 0 1 0-2.81l14.39-14.42a2 2 0 0 1 2.81 0l31.88 31.88 31.84-31.88a2 2 0 0 1 2.81 0l14.39 14.44a2 2 0 0 1 0 2.79z"/></g></svg>

<svg xmlns="http://www.w3.org/2000/svg" viewBox="0 0 231.71 127.49"><defs><style>.cls-1{fill:#fff;}</style></defs><g id="Layer_2" data-name="Layer 2"><g id="Layer_1-2" data-name="Layer 1"><path class="cls-1" d="M128.66,4.92a16.81,16.81,0,1,1-23.78,0A16.81,16.81,0,0,1,128.66,4.92Z"/><path class="cls-1" d="M98.74,112.48,84.31,126.91a2,2,0,0,1-2.81,0L49.66,95.07,17.82,126.91a2,2,0,0,1-2.81,0L.58,112.48a2,2,0,0,1,0-2.81L48.26,62a2,2,0,0,1,2.81,0l47.67,47.64A2,2,0,0,1,98.74,112.48Z"/><path class="cls-1" d="M231.13,112.48,216.7,126.91a2,2,0,0,1-2.81,0L182.05,95.07l-31.84,31.84a2,2,0,0,1-2.81,0L133,112.48a2,2,0,0,1,0-2.81L180.65,62a2,2,0,0,1,2.81,0l47.67,47.64A2,2,0,0,1,231.13,112.48Z"/><path class="cls-1" d="M165.83,44.79,118.19,92.47a2,2,0,0,1-2.8,0L67.71,44.79a2,2,0,0,1,0-2.81L82.1,27.56a2,2,0,0,1,2.81,0l31.88,31.88,31.84-31.88a2,2,0,0,1,2.81,0L165.83,42A2,2,0,0,1,165.83,44.79Z"/></g></g></svg>
